svg/sync.svg

<?xml version="1.0" encoding="UTF-8"?>
<svg xmlns="http://www.w3.org/2000/svg" xmlns:xlink="http://www.w3.org/1999/xlink" width="32" height="32" viewBox="0 0 32 32">
<path fill-rule="nonzero" fill="rgb(0%, 0%, 0%)" fill-opacity="1" d="M 12.800781 2.558594 C 9.285156 2.558594 6.398438 5.445312 6.398438 8.960938 L 6.398438 20.320312 L 4.558594 18.480469 L 2.761719 20.300781 L 7.679688 25.21875 L 12.601562 20.300781 L 10.800781 18.5 L 8.960938 20.320312 L 8.960938 8.960938 C 8.960938 6.839844 10.679688 5.121094 12.800781 5.121094 L 19.839844 5.121094 L 19.839844 2.558594 Z M 24.320312 6.78125 L 19.378906 11.71875 L 21.199219 13.519531 L 23.039062 11.679688 L 23.039062 23.039062 C 23.039062 25.160156 21.320312 26.878906 19.199219 26.878906 L 12.160156 26.878906 L 12.160156 29.441406 L 19.199219 29.441406 C 22.714844 29.441406 25.601562 26.554688 25.601562 23.039062 L 25.601562 11.679688 L 27.441406 13.519531 L 29.242188 11.699219 Z M 24.320312 6.78125 "/>
</svg>

<svg role="img" viewBox="0 0 32 32" xmlns="http://www.w3.org/2000/svg"><path d="M12.8 2.559c-3.515 0-6.402 2.886-6.402 6.402v11.36l-1.84-1.84-1.796 1.82 4.918 4.918 4.922-4.918L10.8 18.5l-1.84 1.82V8.96a3.84 3.84 0 0 1 3.84-3.839h7.039V2.56ZM24.32 6.78l-4.94 4.94 1.82 1.8 1.84-1.84v11.36a3.84 3.84 0 0 1-3.84 3.84h-7.04v2.562h7.04c3.515 0 6.402-2.886 6.402-6.402V11.68l1.84 1.84 1.8-1.82Zm0 0"/></svg>
